X:1
T:Title
%%score ( 1 2 ) ( 3 4 )
L:1/8
Q:1/4=110
M:4/4
K:E
V:1 treble nm="Grand Piano, Soprano"
V:2 treble 
V:3 bass nm="Choir Pad, Fulneck, CMD"
V:4 bass 
V:1
 EF [EG]2 [EG]2 [EG]2 | [EG][FA] [GB]2 [Ac]2 [GB]2 | [GB][EG] [DF]2- [DF][DF] [CE]2 | %3
 [DF]2 [EG]2 [GB]4 | EF [EG]2 [EG]2 [EG]2 | [EG][FA] [GB]2 [Ac]2 [GB]2 | Be [Fd]2- [Fd][Fd] [Ac]2 | %7
 [Ad]2 [Ge]6 | [GB]2 c2- [Ac-]2 [Ac][ce] | [Bd][Ac] B2- [GB]2 [EG]2 | %10
 [GB][EG] [DF]2- [DF][DF] [CE]2 | [DF]2 [EG]2 [GB]4 | [GB]2 c2- [Ac-]2 [Ac][ce] | %13
 [Bd][Ac] B2- [GB]2 [Ge]2 | EF [EG]2- [EG][EB] [EG]2 | [DF]2 E6- | E2 z2 z4 |] %17
V:2
 x8 | x8 | x8 | x8 | x8 | x8 | G2 z2 z4 | x8 | z2 A2 z4 | z2 G2 z4 | x8 | x8 | z2 A2 z4 | %13
 z2 G2 z4 | x8 | x8 | x8 |] %17
V:3
 G,A, [E,B,]2 [E,B,]2 [E,B,]2 | [E,B,]2 [E,E]2 [E,E]2 [E,E]2 | %2
w: By~Ernest~O.~Butterfield * * * *||
 EB, [B,,B,]2- [B,,B,][B,,A,] [C,G,]2 | [B,,B,]2 B,2 E4 | G,A, [E,B,]2 [E,B,]2 [E,B,]2 | %5
w: |||
 [E,B,]2 [E,E]2 [E,E]2 [E,E]2 | EB, [B,,B,]2- [B,,B,][B,,B,] [B,,B,]2 | [B,,B,]2 [E,B,]6 | %8
w: |||
 [E,E]2 [A,E]2 [A,E]2 [A,E]2 | [A,E]2 [E,E]2 [E,E]2 [E,B,]2 | %10
w: ||
 EB, [B,,B,]2- [B,,B,][B,,A,] [C,G,]2 | [B,,B,]2 B,2 E4 | [E,E]2 [A,E]2 [A,E]2 [A,E]2 | %13
w: |||
 [A,E]2 [E,E]2 [E,E]2 [E,B,]2 | G,A, [E,B,]2- [E,B,][G,B,] B,2 | [B,,A,]2 [E,G,]6- | %16
w: |||
 [E,G,]2 z2 z4 |] %17
w: |
V:4
 E,2 z2 z4 | x8 | E,2 z2 z4 | z2 E,6 | E,2 z2 z4 | x8 | E,2 z2 z4 | x8 | x8 | x8 | E,2 z2 z4 | %11
 z2 E,6 | x8 | x8 | E,2 z2 z4 | x8 | x8 |] %17

